svg/building/lighthouse_fill.svg

<?xml version="1.0" encoding="UTF-8"?>
<svg width="24px" height="24px" viewBox="0 0 24 24" version="1.1" xmlns="http://www.w3.org/2000/svg" xmlns:xlink="http://www.w3.org/1999/xlink">
    <title>lighthouse_fill</title>
    <g id="页面-1" stroke="none" stroke-width="1" fill="none" fill-rule="evenodd">
        <g id="Building" transform="translate(-720.000000, -48.000000)">
            <g id="lighthouse_fill" transform="translate(720.000000, 48.000000)">
                 <path d="M24,0 L24,24 L0,24 L0,0 L24,0 Z M12.5934901,23.257841 L12.5819402,23.2595131 L12.5108777,23.2950439 L12.4918791,23.2987469 L12.4918791,23.2987469 L12.4767152,23.2950439 L12.4056548,23.2595131 C12.3958229,23.2563662 12.3870493,23.2590235 12.3821421,23.2649074 L12.3780323,23.275831 L12.360941,23.7031097 L12.3658947,23.7234994 L12.3769048,23.7357139 L12.4804777,23.8096931 L12.4953491,23.8136134 L12.4953491,23.8136134 L12.5071152,23.8096931 L12.6106902,23.7357139 L12.6232938,23.7196733 L12.6232938,23.7196733 L12.6266527,23.7031097 L12.609561,23.275831 C12.6075724,23.2657013 12.6010112,23.2592993 12.5934901,23.257841 L12.5934901,23.257841 Z M12.8583906,23.1452862 L12.8445485,23.1473072 L12.6598443,23.2396597 L12.6498822,23.2499052 L12.6498822,23.2499052 L12.6471943,23.2611114 L12.6650943,23.6906389 L12.6699349,23.7034178 L12.6699349,23.7034178 L12.678386,23.7104931 L12.8793402,23.8032389 C12.8914285,23.8068999 12.9022333,23.8029875 12.9078286,23.7952264 L12.9118235,23.7811639 L12.8776777,23.1665331 C12.8752882,23.1545897 12.8674102,23.1470016 12.8583906,23.1452862 L12.8583906,23.1452862 Z M12.1430473,23.1473072 C12.1332178,23.1423925 12.1221763,23.1452606 12.1156365,23.1525954 L12.1099173,23.1665331 L12.0757714,23.7811639 C12.0751323,23.7926639 12.0828099,23.8018602 12.0926481,23.8045676 L12.108256,23.8032389 L12.3092106,23.7104931 L12.3186497,23.7024347 L12.3186497,23.7024347 L12.3225043,23.6906389 L12.340401,23.2611114 L12.337245,23.2485176 L12.337245,23.2485176 L12.3277531,23.2396597 L12.1430473,23.1473072 Z" id="MingCute" fill-rule="nonzero"></path>
                <path d="M11.1679,2.353 C11.6298083,2.04509167 12.219859,2.01943264 12.7031244,2.27602292 L12.8321,2.353 L15.3485,4.03062 C15.6949889,4.26161556 15.927858,4.62471975 15.9958372,5.03094713 L16.0135,5.18513 L16.254,9.03269 C16.6833,9.14508 17,9.53563 17,10.0001 C17,10.37873 16.789643,10.708193 16.4794454,10.8779726 L16.3725,10.9285 L16.9395,20.0001 L19,20.0001 C19.5523,20.0001 20,20.4479 20,21.0001 C20,21.51295 19.613973,21.9356092 19.1166239,21.9933725 L19,22.0001 L5,22.0001 C4.44772,22.0001 4,21.5524 4,21.0001 C4,20.4873429 4.38604429,20.0646041 4.88337975,20.0068289 L5,20.0001 L7.06055,20.0001 L7.62753,10.9285 C7.25971,10.7808 7,10.4208 7,10.0001 C7,9.57433583 7.26614118,9.210685 7.64116065,9.06646431 L7.74602,9.03269 L7.98649,5.18513 C8.01246333,4.76951222 8.20971963,4.38589444 8.52700973,4.12326213 L8.65152,4.03062 L11.1679,2.353 Z M5.70711,8.29302 C6.09763,8.68354 6.09763,9.3167 5.70711,9.70723 L4.70711,10.7072 C4.31658,11.0978 3.68342,11.0978 3.29289,10.7072 C2.90237,10.3167 2.90237,9.68354 3.29289,9.29302 L4.29289,8.29302 C4.68342,7.90249 5.31658,7.90249 5.70711,8.29302 Z M19.7071,8.29302 L20.7071,9.29302 C21.0976,9.68354 21.0976,10.3167 20.7071,10.7072 C20.3166,11.0978 19.6834,11.0978 19.2929,10.7072 L18.2929,9.70723 C17.9024,9.3167 17.9024,8.68354 18.2929,8.29302 C18.6834,7.90249 19.3166,7.90249 19.7071,8.29302 Z M12,5.50012 C11.1716,5.50012 10.5,6.17169 10.5,7.00012 C10.5,7.82855 11.1716,8.50012 12,8.50012 C12.8284,8.50012 13.5,7.82855 13.5,7.00012 C13.5,6.17169 12.8284,5.50012 12,5.50012 Z M4.70711,4.29302 L5.70711,5.29302 C6.09763,5.68354 6.09763,6.3167 5.70711,6.70723 C5.31658,7.09775 4.68342,7.09775 4.29289,6.70723 L3.29289,5.70723 C2.90237,5.3167 2.90237,4.68354 3.29289,4.29302 C3.68342,3.90249 4.31658,3.90249 4.70711,4.29302 Z M19.2929,4.29302 C19.6834,3.90249 20.3166,3.90249 20.7071,4.29302 C21.0675615,4.6535 21.0952893,5.22072651 20.7902834,5.61302153 L20.7071,5.70723 L19.7071,6.70723 C19.3166,7.09775 18.6834,7.09775 18.2929,6.70723 C17.9324385,6.34674077 17.9047107,5.77951355 18.2097166,5.38722634 L18.2929,5.29302 L19.2929,4.29302 Z" id="形状" fill="#09244B"></path>
            </g>
        </g>
    </g>
</svg>

<svg xmlns="http://www.w3.org/2000/svg" width="24" height="24"><g fill="none" fill-rule="evenodd"><path d="M24 0v24H0V0h24ZM12.593 23.258l-.011.002-.071.035-.02.004-.014-.004-.071-.035c-.01-.004-.019-.001-.024.005l-.004.01-.017.428.005.02.01.013.104.074.015.004.012-.004.104-.074.012-.016.004-.017-.017-.427c-.002-.01-.009-.017-.017-.018Zm.265-.113-.013.002-.185.093-.01.01-.003.011.018.43.005.012.008.007.201.093c.012.004.023 0 .029-.008l.004-.014-.034-.614c-.003-.012-.01-.02-.02-.022Zm-.715.002a.023.023 0 0 0-.027.006l-.006.014-.034.614c0 .012.007.02.017.024l.015-.002.201-.093.01-.008.004-.011.017-.43-.003-.012-.01-.01-.184-.092Z"/><path fill="#09244B" d="M11.168 2.353a1.5 1.5 0 0 1 1.535-.077l.13.077 2.515 1.678a1.5 1.5 0 0 1 .648 1l.018.154.24 3.848a1 1 0 0 1 .225 1.845l-.107.05L16.94 20H19a1 1 0 0 1 .117 1.993L19 22H5a1 1 0 0 1-.117-1.993L5 20h2.06l.568-9.071a1 1 0 0 1 .013-1.863l.105-.033.24-3.848a1.5 1.5 0 0 1 .541-1.062l.125-.092 2.516-1.678Zm-5.46 5.94a1 1 0 0 1 0 1.414l-1 1a1 1 0 1 1-1.415-1.414l1-1a1 1 0 0 1 1.414 0Zm14 0 1 1a1 1 0 0 1-1.415 1.414l-1-1a1 1 0 0 1 1.414-1.414ZM12 5.5a1.5 1.5 0 1 0 0 3 1.5 1.5 0 0 0 0-3ZM4.707 4.293l1 1a1 1 0 0 1-1.414 1.414l-1-1a1 1 0 0 1 1.414-1.414Zm14.586 0a1 1 0 0 1 1.497 1.32l-.083.094-1 1a1 1 0 0 1-1.497-1.32l.083-.094 1-1Z"/></g></svg>
